assets/img/icons/duotone-icons/Weather/Snow#3.svg

<?xml version="1.0" encoding="UTF-8"?>
<svg width="24px" height="24px" viewBox="0 0 24 24" version="1.1" xmlns="http://www.w3.org/2000/svg" xmlns:xlink="http://www.w3.org/1999/xlink">
    <!-- Generator: Sketch 52.2 (67145) - http://www.bohemiancoding.com/sketch -->
    <title>Stockholm-icons / Weather / Snow#3</title>
    <desc>Created with Sketch.</desc>
    <g id="Stockholm-icons-/-Weather-/-Snow#3" stroke="none" stroke-width="1" fill="none" fill-rule="evenodd">
        <polygon id="Shape" points="0 0 24 0 24 24 0 24"></polygon>
        <path d="M11.9058667,22.1192596 C12.4393328,22.2622014 12.7559153,22.8105384 12.6129734,23.3440045 C12.4700316,23.8774706 11.9216947,24.1940531 11.3882286,24.0511113 C10.8547625,23.9081694 10.53818,23.3598325 10.6811218,22.8263664 C10.8240636,22.2929003 11.3724006,21.9763178 11.9058667,22.1192596 Z M15.9058667,22.1192596 C16.4393328,22.2622014 16.7559153,22.8105384 16.6129734,23.3440045 C16.4700316,23.8774706 15.9216947,24.1940531 15.3882286,24.0511113 C14.8547625,23.9081694 14.53818,23.3598325 14.6811218,22.8263664 C14.8240636,22.2929003 15.3724006,21.9763178 15.9058667,22.1192596 Z M7.90586666,22.1192596 C8.43933276,22.2622014 8.75591525,22.8105384 8.61297344,23.3440045 C8.47003163,23.8774706 7.92169467,24.1940531 7.38822857,24.0511113 C6.85476246,23.9081694 6.53817997,23.3598325 6.68112179,22.8263664 C6.8240636,22.2929003 7.37240055,21.9763178 7.90586666,22.1192596 Z M13,15 C10.790861,15 9,13.209139 9,11 C9,8.790861 10.790861,7 13,7 C15.209139,7 17,8.790861 17,11 C17,13.209139 15.209139,15 13,15 Z M20.5,9.5 L22,9.5 C22.8284271,9.5 23.5,10.1715729 23.5,11 C23.5,11.8284271 22.8284271,12.5 22,12.5 L20.5,12.5 C19.6715729,12.5 19,11.8284271 19,11 C19,10.1715729 19.6715729,9.5 20.5,9.5 Z M17.0606602,4.87132034 L18.1213203,3.81066017 C18.7071068,3.22487373 19.6568542,3.22487373 20.2426407,3.81066017 C20.8284271,4.39644661 20.8284271,5.34619408 20.2426407,5.93198052 L19.1819805,6.99264069 C18.5961941,7.57842712 17.6464466,7.57842712 17.0606602,6.99264069 C16.4748737,6.40685425 16.4748737,5.45710678 17.0606602,4.87132034 Z M13,0.5 C13.8284271,0.5 14.5,1.17157288 14.5,2 L14.5,3.5 C14.5,4.32842712 13.8284271,5 13,5 C12.1715729,5 11.5,4.32842712 11.5,3.5 L11.5,2 C11.5,1.17157288 12.1715729,0.5 13,0.5 Z M5.81066017,3.81066017 C6.39644661,3.22487373 7.34619408,3.22487373 7.93198052,3.81066017 L8.99264069,4.87132034 C9.57842712,5.45710678 9.57842712,6.40685425 8.99264069,6.99264069 C8.40685425,7.57842712 7.45710678,7.57842712 6.87132034,6.99264069 L5.81066017,5.93198052 C5.22487373,5.34619408 5.22487373,4.39644661 5.81066017,3.81066017 Z" id="Combined-Shape" fill="#335EEA" opacity="0.3"></path>
        <path d="M4.74714567,19.0425758 C3.09410362,17.9740356 2,16.1147886 2,14 C2,10.6862915 4.6862915,8 8,8 C10.7957591,8 13.1449096,9.91215918 13.8109738,12.5 L16.25,12.5 C18.3210678,12.5 20,14.1789322 20,16.25 C20,18.3210678 18.3210678,20 16.25,20 L7.25,20 C6.28817895,20 5.41093178,19.6378962 4.74714567,19.0425758 Z" id="Combined-Shape" fill="#335EEA"></path>
    </g>
</svg>

<svg width="24" height="24" viewBox="0 0 24 24" xmlns="http://www.w3.org/2000/svg"><g fill="none" fill-rule="evenodd"><path d="M0 0h24v24H0z"/><path d="M11.906 22.12a1 1 0 11-.518 1.931 1 1 0 01.518-1.932zm4 0a1 1 0 11-.518 1.931 1 1 0 01.518-1.932zm-8 0a1 1 0 11-.518 1.931 1 1 0 01.518-1.932zM13 15a4 4 0 110-8 4 4 0 010 8zm7.5-5.5H22a1.5 1.5 0 010 3h-1.5a1.5 1.5 0 010-3zm-3.44-4.629l1.061-1.06a1.5 1.5 0 012.122 2.121l-1.061 1.06a1.5 1.5 0 11-2.121-2.12zM13 .5A1.5 1.5 0 0114.5 2v1.5a1.5 1.5 0 01-3 0V2A1.5 1.5 0 0113 .5zM5.81 3.81a1.5 1.5 0 012.122 0l1.06 1.061a1.5 1.5 0 01-2.12 2.122L5.81 5.932a1.5 1.5 0 010-2.121z" fill="#335EEA" opacity=".3"/><path d="M4.747 19.043a6 6 0 119.064-6.543h2.439a3.75 3.75 0 010 7.5h-9c-.962 0-1.84-.362-2.503-.957z" fill="#335EEA"/></g></svg>
